public/img/ui/docker.svg

<svg fill="none" height="40" viewBox="0 0 41 40" width="41" xmlns="http://www.w3.org/2000/svg" xmlns:xlink="http://www.w3.org/1999/xlink"><clipPath id="a"><path d="m.666504 0h40v40h-40z"/></clipPath><g clip-path="url(#a)" stroke="#ff2d20" stroke-linecap="round" stroke-linejoin="round" stroke-width="2"><path d="m4.28662 28.4805h6.64998"/><path d="m2.59644 24.8789h4.56"/><path d="m39.6664 17.4809c-.11.23-.42.87-.5 1.02-1.41 2.69-4.15 2.71-5.42 2.68-3.24 7.82-10.15 12.12-19.5 12.12-4.31997 0-7.61997-1.32-9.81997-3.93-2.27-2.69-3.13-6.61-2.61-9.63h25.80997c1.34.02 2.36-.36 2.87-.64-1.17-1.79-.87-4.51.22-6.16l.55-.83.83.55c1.45 1.12 2.24 2.36 2.44 3.78 1.51-.28 3.49-.08 4.34.5l.79.53zm-31.12997-2.18v3.53h-3.93v-3.53zm4.62997-.71h-3.92997v-3.57h3.92997zm0 4.24h-3.92997v-3.53h3.92997zm4.64-4.24h-3.92v-3.57h3.92zm0 4.24h-3.92v-3.53h3.92zm4.64-8.52h-3.93v-3.59996h3.93zm0 4.28h-3.93v-3.57h3.93zm-3.93 4.25v-3.53h3.93v3.53zm8.57 0h-3.92v-3.53h3.92z"/></g></svg>

<svg width="41" height="40" viewBox="0 0 41 40" fill="none" xmlns="http://www.w3.org/2000/svg">
<g clip-path="url(#clip0_834_1085)">
<path d="M4.28662 28.4805H10.9366" stroke="#FF2D20" stroke-width="2" stroke-linecap="round" stroke-linejoin="round"/>
<path d="M2.59644 24.8789H7.15644" stroke="#FF2D20" stroke-width="2" stroke-linecap="round" stroke-linejoin="round"/>
<path d="M39.6664 17.4809C39.5564 17.7109 39.2464 18.3509 39.1664 18.5009C37.7564 21.1909 35.0164 21.2109 33.7464 21.1809C30.5064 29.0009 23.5964 33.3009 14.2464 33.3009C9.92643 33.3009 6.62643 31.9809 4.42643 29.3709C2.15643 26.6809 1.29643 22.7609 1.81643 19.7409H27.6264C28.9664 19.7609 29.9864 19.3809 30.4964 19.1009C29.3264 17.3109 29.6264 14.5909 30.7164 12.9409L31.2664 12.1109L32.0964 12.6609C33.5464 13.7809 34.3364 15.0209 34.5364 16.4409C36.0464 16.1609 38.0264 16.3609 38.8764 16.9409L39.6664 17.4709V17.4809ZM8.53643 15.3009V18.8309H4.60643V15.3009H8.53643ZM13.1664 14.5909H9.23643V11.0209H13.1664V14.5909ZM13.1664 18.8309H9.23643V15.3009H13.1664V18.8309ZM17.8064 14.5909H13.8864V11.0209H17.8064V14.5909ZM17.8064 18.8309H13.8864V15.3009H17.8064V18.8309ZM22.4464 10.3109H18.5164V6.71094H22.4464V10.3109ZM22.4464 14.5909H18.5164V11.0209H22.4464V14.5909ZM18.5164 18.8409V15.3109H22.4464V18.8409H18.5164ZM27.0864 18.8409H23.1664V15.3109H27.0864V18.8409Z" stroke="#FF2D20" stroke-width="2" stroke-linecap="round" stroke-linejoin="round"/>
</g>
<defs>
<clipPath id="clip0_834_1085">
<rect width="40" height="40" fill="white" transform="translate(0.666504)"/>
</clipPath>
</defs>
</svg>
